packages/icon/src/svg/home.icon.svg

<?xml version="1.0" encoding="UTF-8"?>
<svg width="24px" height="24px" viewBox="0 0 24 24" version="1.1" xmlns="http://www.w3.org/2000/svg" xmlns:xlink="http://www.w3.org/1999/xlink">
    <!-- Generator: Sketch 46.1 (44463) - http://www.bohemiancoding.com/sketch -->
    <title>Icon/home.icon</title>
    <desc>Created with Sketch.</desc>
    <defs>
        <path d="M21,13.8558028 L21,22.0005 L14,22.0005 L14,17 C14,15.8954305 13.1045695,15 12,15 C10.8954305,15 10,15.8954305 10,17 L10,22.0005 L3,22.0005 L3,13.8558028 L1.72264186,15.1912226 L0.277358143,13.8087774 L12,1.55328814 L23.7226419,13.8087774 L22.2773581,15.1912226 L21,13.8558028 Z M12.9233819,5.41206567 L12,4.5 L11.0766181,5.41206567 L5,11.7648937 L5,20.0005 L8,20.0005 L8,17 C8,14.790861 9.790861,13 12,13 C14.209139,13 16,14.790861 16,17 L16,20.0005 L19,20.0005 L19,11.7648937 L12.9233819,5.41206567 Z" id="path-1"></path>
    </defs>
    <g id="Symbols" stroke="none" stroke-width="1" fill="none" fill-rule="evenodd">
        <g id="Icon/home">
            <mask id="mask-2" fill="white">
                <use xlink:href="#path-1"></use>
            </mask>
            <use id="home" fill="#000000" fill-rule="nonzero" xlink:href="#path-1"></use>
            <g id="Color/Neutral/White" mask="url(#mask-2)" fill="#FFFFFF">
                <rect id="222222-Fill" x="0" y="0" width="24" height="24"></rect>
            </g>
        </g>
    </g>
</svg>

<svg viewBox="0 0 24 24" xmlns="http://www.w3.org/2000/svg"><path d="M21 13.8558v8.1447h-7V17c0-1.1046-.8954-2-2-2s-2 .8954-2 2v5.0005H3v-8.1447l-1.2774 1.3354-1.4452-1.3824L12 1.5533l11.7226 12.2555-1.4452 1.3824L21 13.8558zM12.9234 5.412L12 4.5l-.9234.912L5 11.765v8.2355h3V17c0-2.209 1.791-4 4-4s4 1.791 4 4v3.0005h3V11.765l-6.0766-6.353z" /></svg>
